X:20
T:Irish Rover, The 
C:Joe Buchanan's Scottish Tome - Page 067.1
I:067 1
R:Barndance
Z:Carl Allison
L:1/4
M:4/4
K:C
"G7"(G E) | "C"C2 E F | "C"G c d | "C"e2 "C7"d c | "F"c4 B A |
"C"G2 A G | "Am"E2 F E | "D7"(D4 | "G7"D4) (G E) |
"C"C2 E F | "C"G2 c d | "C"e2 d "C7"c | "F"c2 B A |
"C"G2 "F"A F | "C"E2 F D | "C"(C2 | "C"C2) G2 |
"C"c3 d | "Am"e2 d c | "G7"d (d2 B) | "G7"G F E D |
"C"C2 E F | "C"G2 cd | "C"e2 d c | "F"F2 E D |
"C"C2 E G | "C"c2 e2 | "G7"d4 | "C"c4 |]

